src/Resource_Files/fluent/insert-numbered-list.svg

<svg clip-rule="evenodd" fill-rule="evenodd" stroke-linejoin="round" stroke-miterlimit="2" viewBox="0 0 16 16" xmlns="http://www.w3.org/2000/svg"><path d="m4.432 13.028c.43 0 .764.097 1.002.291.24.193.361.444.361.753 0 .548-.279.892-.835 1.031v.014c.296.038.531.146.703.326.172.177.258.396.258.656 0 .392-.144.703-.431.932-.287.228-.684.342-1.19.342-.433 0-.786-.07-1.057-.211v-.805c.281.205.609.307.984.307.236 0 .42-.051.551-.152.133-.102.199-.243.199-.425 0-.187-.082-.332-.246-.434-.162-.101-.386-.152-.671-.152h-.389v-.709h.36c.547 0 .82-.181.82-.545 0-.341-.21-.512-.63-.512-.281 0-.554.09-.82.272v-.756c.295-.148.639-.223 1.031-.223zm12.068.972.09.008c.233.042.41.247.41.492s-.177.45-.41.492l-.09.008h-8l-.09-.008c-.233-.042-.41-.247-.41-.492s.177-.45.41-.492l.09-.008zm-12.018-5.971c.213 0 .403.028.571.084.17.055.313.134.431.238.117.103.206.229.266.378.063.146.094.31.094.492 0 .193-.03.365-.091.516-.058.15-.138.287-.237.41-.098.123-.211.236-.34.34l-.197.15-.204.145c-.094.067-.185.133-.273.2-.086.064-.162.129-.228.193-.067.063-.119.124-.159.185-.039.06-.058.118-.058.172h1.781v.768h-2.795v-.316c0-.215.036-.408.109-.578.072-.171.163-.325.272-.459.109-.137.229-.257.357-.361l.253-.196.12-.088c.123-.088.23-.172.322-.252.094-.08.172-.159.234-.237.065-.08.112-.16.144-.241.031-.082.047-.168.047-.26 0-.18-.051-.316-.153-.407-.101-.092-.257-.138-.466-.138-.361 0-.707.143-1.037.43v-.814c.366-.236.778-.354 1.237-.354zm12.018.971.09.008c.233.042.41.247.41.492s-.177.45-.41.492l-.09.008h-8l-.09-.008c-.233-.042-.41-.247-.41-.492s.177-.45.41-.492l.09-.008zm-11.463-5.995v4.295h-.922v-3.252c-.051.045-.112.088-.182.129-.068.039-.142.075-.22.108-.078.032-.159.059-.243.082-.084.022-.167.038-.249.047v-.779c.24-.07.467-.16.68-.27.213-.109.405-.229.577-.36zm11.463.995.09.008c.233.042.41.247.41.492s-.177.45-.41.492l-.09.008h-8l-.09-.008c-.233-.042-.41-.247-.41-.492s.177-.45.41-.492l.09-.008z" fill="#1abc9c" fill-rule="nonzero" transform="translate(-2 -2.00508)"/></svg>

<?xml version="1.0" encoding="UTF-8" standalone="no"?>
<!DOCTYPE svg PUBLIC "-//W3C//DTD SVG 1.1//EN" "http://www.w3.org/Graphics/SVG/1.1/DTD/svg11.dtd">
<svg width="100%" height="100%" viewBox="0 0 16 16" version="1.1" xmlns="http://www.w3.org/2000/svg" xmlns:xlink="http://www.w3.org/1999/xlink" xml:space="preserve" xmlns:serif="http://www.serif.com/" style="fill-rule:evenodd;clip-rule:evenodd;stroke-linejoin:round;stroke-miterlimit:2;">
    <g transform="matrix(1,0,0,1,-2,-2.00508)">
        <path d="M4.432,13.028C4.862,13.028 5.196,13.125 5.434,13.319C5.674,13.512 5.795,13.763 5.795,14.072C5.795,14.62 5.516,14.964 4.96,15.103L4.96,15.117C5.256,15.155 5.491,15.263 5.663,15.443C5.835,15.62 5.921,15.839 5.921,16.099C5.921,16.491 5.777,16.802 5.49,17.031C5.203,17.259 4.806,17.373 4.3,17.373C3.867,17.373 3.514,17.303 3.243,17.162L3.243,16.357C3.524,16.562 3.852,16.664 4.227,16.664C4.463,16.664 4.647,16.613 4.778,16.512C4.911,16.41 4.977,16.269 4.977,16.087C4.977,15.9 4.895,15.755 4.731,15.653C4.569,15.552 4.345,15.501 4.06,15.501L3.671,15.501L3.671,14.792L4.031,14.792C4.578,14.792 4.851,14.611 4.851,14.247C4.851,13.906 4.641,13.735 4.221,13.735C3.94,13.735 3.667,13.825 3.401,14.007L3.401,13.251C3.696,13.103 4.04,13.028 4.432,13.028ZM16.5,14L16.59,14.008C16.823,14.05 17,14.255 17,14.5C17,14.745 16.823,14.95 16.59,14.992L16.5,15L8.5,15L8.41,14.992C8.177,14.95 8,14.745 8,14.5C8,14.255 8.177,14.05 8.41,14.008L8.5,14L16.5,14ZM4.482,8.029C4.695,8.029 4.885,8.057 5.053,8.113C5.223,8.168 5.366,8.247 5.484,8.351C5.601,8.454 5.69,8.58 5.75,8.729C5.813,8.875 5.844,9.039 5.844,9.221C5.844,9.414 5.814,9.586 5.753,9.737C5.695,9.887 5.615,10.024 5.516,10.147C5.418,10.27 5.305,10.383 5.176,10.487L4.979,10.637L4.775,10.782C4.681,10.849 4.59,10.915 4.502,10.982C4.416,11.046 4.34,11.111 4.274,11.175C4.207,11.238 4.155,11.299 4.115,11.36C4.076,11.42 4.057,11.478 4.057,11.532L5.838,11.532L5.838,12.3L3.043,12.3L3.043,11.984C3.043,11.769 3.079,11.576 3.152,11.406C3.224,11.235 3.315,11.081 3.424,10.947C3.533,10.81 3.653,10.69 3.781,10.586L4.034,10.39L4.154,10.302C4.277,10.214 4.384,10.13 4.476,10.05C4.57,9.97 4.648,9.891 4.71,9.813C4.775,9.733 4.822,9.653 4.854,9.572C4.885,9.49 4.901,9.404 4.901,9.312C4.901,9.132 4.85,8.996 4.748,8.905C4.647,8.813 4.491,8.767 4.282,8.767C3.921,8.767 3.575,8.91 3.245,9.197L3.245,8.383C3.611,8.147 4.023,8.029 4.482,8.029ZM16.5,9L16.59,9.008C16.823,9.05 17,9.255 17,9.5C17,9.745 16.823,9.95 16.59,9.992L16.5,10L8.5,10L8.41,9.992C8.177,9.95 8,9.745 8,9.5C8,9.255 8.177,9.05 8.41,9.008L8.5,9L16.5,9ZM5.037,3.005L5.037,7.3L4.115,7.3L4.115,4.048C4.064,4.093 4.003,4.136 3.933,4.177C3.865,4.216 3.791,4.252 3.713,4.285C3.635,4.317 3.554,4.344 3.47,4.367C3.386,4.389 3.303,4.405 3.221,4.414L3.221,3.635C3.461,3.565 3.688,3.475 3.901,3.365C4.114,3.256 4.306,3.136 4.478,3.005L5.037,3.005ZM16.5,4L16.59,4.008C16.823,4.05 17,4.255 17,4.5C17,4.745 16.823,4.95 16.59,4.992L16.5,5L8.5,5L8.41,4.992C8.177,4.95 8,4.745 8,4.5C8,4.255 8.177,4.05 8.41,4.008L8.5,4L16.5,4Z" style="fill:rgb(26,188,156);fill-rule:nonzero;"/>
    </g>
</svg>
